X:127
T:Jockey To The Fair. Dal.131
N:Similar to other mid 19C settings, including the
N:John Rook music manuscript collection (Waverton, Cumbria, 1840)
N:and M.E. Eames music manuscript book(1859), which share the
N:13 bar B Part, but differ in some details.
B:R.Dalton MS, 1841, Sheffield
Z:Village Music Project, 2019, Greg Bradfield-Smith.
M:6/8
L:1/8
Q:3/8=110
K:G
D|G2A B2c|d2g d2c|BdG GAG|{AB}c2B A2A|
dcd efg|faf e2g|!trill!fed edc|d3-d2:|
|:d|afd afd|c2c B2c|dgd dgd|c2c B2B|
e2f g2f|ede B2A|G>AF E2F|G2G G2B|
d3g3|dBG A2B|E2F G2A|B2g BcA|G3G2:|

